src/icons/svg/More.svg

<!-- Generated by IcoMoon.io -->
<svg version="1.1" xmlns="http://www.w3.org/2000/svg" width="24" height="24" viewBox="0 0 24 24">
<title>more</title>
<path fill="#444" d="M12 22.667c5.891 0 10.667-4.776 10.667-10.667s-4.776-10.667-10.667-10.667c-5.891 0-10.667 4.776-10.667 10.667s4.776 10.667 10.667 10.667zM24 12c0 6.627-5.373 12-12 12s-12-5.373-12-12c0-6.627 5.373-12 12-12s12 5.373 12 12z"></path>
<path fill="#444" d="M12.113 13.126c-0.622 0-1.126-0.504-1.126-1.126s0.504-1.126 1.126-1.126c0.622 0 1.126 0.504 1.126 1.126s-0.504 1.126-1.126 1.126zM7.45 13.126c-0.622 0-1.126-0.504-1.126-1.126s0.504-1.126 1.126-1.126c0.622 0 1.126 0.504 1.126 1.126s-0.504 1.126-1.126 1.126zM16.777 13.126c-0.622 0-1.126-0.504-1.126-1.126s0.504-1.126 1.126-1.126c0.622 0 1.126 0.504 1.126 1.126s-0.504 1.126-1.126 1.126z"></path>
</svg>

<svg width="24" height="24" viewBox="0 0 24 24" fill="none" xmlns="http://www.w3.org/2000/svg">
<path d="M12 22.667C17.891 22.667 22.667 17.891 22.667 12C22.667 6.109 17.891 1.333 12 1.333C6.109 1.333 1.333 6.109 1.333 12C1.333 17.891 6.109 22.667 12 22.667V22.667ZM24 12C24 18.627 18.627 24 12 24C5.373 24 0 18.627 0 12C0 5.373 5.373 0 12 0C18.627 0 24 5.373 24 12Z" fill="#1C2125"/>
<path d="M12.113 13.126C11.491 13.126 10.987 12.622 10.987 12C10.987 11.378 11.491 10.874 12.113 10.874C12.735 10.874 13.239 11.378 13.239 12C13.239 12.622 12.735 13.126 12.113 13.126ZM7.44997 13.126C6.82797 13.126 6.32397 12.622 6.32397 12C6.32397 11.378 6.82797 10.874 7.44997 10.874C8.07197 10.874 8.57597 11.378 8.57597 12C8.57597 12.622 8.07197 13.126 7.44997 13.126V13.126ZM16.777 13.126C16.155 13.126 15.651 12.622 15.651 12C15.651 11.378 16.155 10.874 16.777 10.874C17.399 10.874 17.903 11.378 17.903 12C17.903 12.622 17.399 13.126 16.777 13.126Z" fill="#1C2125"/>
</svg>
